X: 94
T:Fifty Not Out
% Nottingham Music Database
S:Chris Dewhurst 1984, via Phil Rowe
M:6/8
K:C
"G7"GAB |"C"c2c cde|G2E A2E|"C"G^FG A2G|"G"B3 B2c|def B2d|
"G"G2B DGB|d^cd fe^d|"C"e3 "G7"GAB|"C"c2c cde|G2E A2E|
"C"G^FG A2G|"G"B3 B2c|def B2d|"G"G2B DGA|BAG e2d|"C"c3 cB_B||
"F"A2c FAc|"F"f3 -f2A|"C"G2c EGc|"C"e3 -e2c|"G""d"B2d d^cd|
"D7"A2d d^cd|"G"G^FG ^ABd|"G"g3 GAB|"C"c2c cde|G2E A2E|
"C"G^FG A2G|"G""d"B3 B2c|def B2d|"G"G2B DGA|BAG e2d|"C"c3 ||<end>
<start>
